X: 8
T: The Primrose Lasses
R: reel
M: 4/4
L: 1/8
K: Dmaj
|:g|faef d2 dB|ABde feeg|faef d2 dB|ABde fdd:|
g|fdad fdad|ABde feeg|fdad fdad|ABde fddg||
fdad fdad|ABde feeg|faef d2 dB|ABde fd d2|


Tune 789	Setting 28715

